X:1
T:Francis Grant Harmony
C:copyright 1998 Jim Thompson
R:Reel
E:16
M:2/4
K:D
|:f2e2d4|c4=c4|d4e4|d4G4|
|c4e4|e4c4|e4a4|1 f4d4:|2 f2g2f4||
|:f2e2d4|c4=c4|d4e4|d4G4|
|c4e4|e4c4|e4a4|1 f4d4:|2 f2g2f4|]
